X:33
T: Pike County Breakdown
C: Bill Monroe
S: MandoZine TablEdit Archives
Z: Coon for MandoZine
S: PikeCountyBreakdown1-A-Monroe.tef
L: 1/8
Q: 252
M: 2/4
K: A
|: "A"F/[A/A/]A/A/ AA/A/ | "s"c/[e/e/]e/e/ e/e/e/A/ | "E"c/B/A/c/ B/A/G/B/ | "A"AA/A/ A"s"A/[e/e/] |
 [ee]e ee | f/a/a/a/ a/a/a/e/ | "G"=g/f/e/=g/ f/e/d/f/ | "E""s"[ee]e/e/ ee/e/ |
 [ee]e ee | f/a/a/a/ a/a/a/e/ | "G"=g/f/e/=g/ f/e/d/f/ | "E"[ee]e eG,/A,/ |
 "A"A,/C/C/E/ E/F/F/A/ | A/c/"s"c/e/ e/f/e/c/ | c/B/A/c/ B/A/G/B/ |1 AA/A/ AD/E/ :|2 AA/A/ A2 ||
